packages/tokens/icons/organization/size32Px.svg

<svg viewBox="0 0 32 32" fill="none" xmlns="http://www.w3.org/2000/svg" width="1em" height="1em"><path d="M29.5 19.5V19C29.5 17.6193 28.4668 16.5 27.1923 16.5H23.5" stroke="currentColor" stroke-linecap="round" stroke-linejoin="round"/><path d="M2.5 19.5479V19.048C2.5 17.6678 3.61892 16.5488 4.99918 16.5488L8.5 16.5" stroke="currentColor" stroke-linecap="round" stroke-linejoin="round"/><path d="M6.5 13.5C7.60457 13.5 8.5 12.6046 8.5 11.5C8.5 10.3954 7.60457 9.5 6.5 9.5C5.39543 9.5 4.5 10.3954 4.5 11.5C4.5 12.6046 5.39543 13.5 6.5 13.5Z" stroke="currentColor" stroke-linecap="round" stroke-linejoin="round"/><path d="M25.5 13.5C26.6046 13.5 27.5 12.6046 27.5 11.5C27.5 10.3954 26.6046 9.5 25.5 9.5C24.3954 9.5 23.5 10.3954 23.5 11.5C23.5 12.6046 24.3954 13.5 25.5 13.5Z" stroke="currentColor" stroke-linecap="round" stroke-linejoin="round"/><path d="M9.5 24.9264V24.1887C9.5 22.1515 10.9855 20.5 13.0227 20.5H18.9246C20.9618 20.5 22.5 22.1515 22.5 24.1887V24.9264" stroke="currentColor" stroke-linecap="round" stroke-linejoin="round"/><path d="M16 17.5C18.2091 17.5 20 15.7091 20 13.5C20 11.2909 18.2091 9.5 16 9.5C13.7909 9.5 12 11.2909 12 13.5C12 15.7091 13.7909 17.5 16 17.5Z" stroke="currentColor" stroke-linecap="round" stroke-linejoin="round"/></svg>

<svg xmlns="http://www.w3.org/2000/svg" fill="none" viewBox="0 0 32 32" width="1em" height="1em"><path stroke="currentColor" stroke-linecap="round" stroke-linejoin="round" d="M29.5 19.5V19c0-1.38-1.033-2.5-2.308-2.5H23.5m-21 3.048v-.5a2.5 2.5 0 0 1 2.5-2.5l3.5-.048m-2-3a2 2 0 1 0 0-4 2 2 0 0 0 0 4Zm19 0a2 2 0 1 0 0-4 2 2 0 0 0 0 4Zm-16 11.426v-.737c0-2.038 1.486-3.689 3.523-3.689h5.902c2.037 0 3.575 1.651 3.575 3.689v.737M16 17.5a4 4 0 1 0 0-8 4 4 0 0 0 0 8Z"/></svg>
